!!!OTL: Der heimkehrende Braeutigam
!!!OTL-incipit:Es wollt' sich ein Juengling erwerben,
!!!ARE: Europa, Mitteleuropa, Deutschland (BRD), Baden
!!!YOR: 5, S. 144
!!    ????
!!!SCT: Q0102A
!!!TXL: @@DE
!!!YEM: Copyright 1995, estate of Helmut Schaffrath.
**kern	**text
*ICvox	*
*M6/8	*
*k[f#]	*
*G:	*
!LO:TX:a:t=Baden	!
{8d	Es
=1	=1
8BL	wollt'
8d	sich
8gJ	ein
8BL	Jüng-
8d	.
8gJ	-ling
=2	=2
(4b	er-
8a)	-wer-
4g}	-ben,
{8b	er-
=3	=3
8.aL	-werb'n
16g	in
8f#J	der
8gL	Ju-
8e	-gend
8aJ	ein
=4	=4
4.d	Weib.
4r}	.
{8d	Der
=5	=5
8.ccL	sel-
16b	-bi-
8aJ	-ge
8aL	Jüng-
8g	.
8f#J	-ling
=6	=6
(4g	muß
8b)	rei-
4d}	-sen,
{8g	muß
=7	=7
8eL	rei-
8e	-sen
8eJ	in
8gL	Krieg
8f#	.
8eJ	und
=8	=8
4.d}	in
{(4cc	Streit,
8dd)	mußt'
=9	=9
8.bL	rei-
16a	-sen
(16g	in
16bJ)	.
8aL	Krieg
8g	und
8f#J	in
=10	=10
4.g	Streit.
4r}	.
==	==
!!!AGN: Ballade, Ehe - Geloebnis, Betrug
!!!ONB: ESAC (Essen Associative Code) Database: BALLADE
!!!AMT: compound duple
!!!AIN: vox
!!!EED: Helmut Schaffrath
!!!EEV: 1.0
!!!source: Deutsche Volkslieder mit ihren Melodien Balladen. Herausgegeben vom Deutschen Volksliedarchiv. Fünfter Teil. Freiburg/Breisgau 1965.
!!!page: 144
!!!ENC: Anna Maria Matuszewska
!!!EEV: 2025/02/28
*-	*-
